svgs/duotone/rings-wedding.svg

<svg xmlns="http://www.w3.org/2000/svg" viewBox="0 0 512 512"><!-- Font Awesome Pro 6.0.0-alpha2 by @fontawesome - https://fontawesome.com License - https://fontawesome.com/license (Commercial License) --><defs><style>.fa-secondary{opacity:.4}</style></defs><path d="M221.076 101.838L255.996 31.999L223.996 0H128L96 31.999L130.92 101.838C160.467 94.052 191.529 94.052 221.076 101.838ZM473.088 225.631C442.746 187.941 398.225 164.405 349.992 160.557C364.129 182.511 373.988 206.939 379.051 232.557C436.086 256.336 463.045 321.849 439.266 378.885C415.486 435.919 349.975 462.879 292.939 439.099S208.945 349.807 232.725 292.77C242.553 269.198 260.15 249.696 282.594 237.506C281.594 234.406 280.461 231.359 279.195 228.367L279.115 228.166C278.725 227.266 278.334 226.367 277.924 225.476C277.877 225.359 277.824 225.246 277.766 225.137C277.355 224.236 276.924 223.346 276.494 222.457L276.404 222.277C275.445 220.336 274.426 218.426 273.346 216.547V216.476C272.846 215.607 272.346 214.756 271.824 213.906C271.715 213.726 271.605 213.547 271.484 213.367C271.055 212.656 270.615 211.957 270.154 211.257C270.025 211.046 269.885 210.836 269.744 210.627C269.285 209.927 268.824 209.236 268.346 208.556L267.994 207.996C266.795 206.277 265.549 204.611 264.256 202.998L263.775 202.406C263.295 201.796 262.775 201.197 262.305 200.597L261.635 199.796C261.186 199.267 260.725 198.736 260.266 198.216L259.545 197.386C259.055 196.857 258.545 196.327 258.076 195.796L257.416 195.077C256.705 194.327 255.975 193.577 255.246 192.837C252.359 189.966 249.322 187.253 246.146 184.706C177.729 225.406 145.092 306.923 166.518 383.594C170.568 397.979 176.443 411.788 183.998 424.683C184.738 425.956 185.49 427.212 186.258 428.452C187.018 429.693 187.797 430.913 188.598 432.132C188.596 432.152 188.596 432.173 188.598 432.193C189.385 433.406 190.191 434.607 191.018 435.792L191.068 435.863C191.887 437.056 192.725 438.236 193.578 439.402C194.428 440.583 195.307 441.753 196.188 442.902C197.074 444.07 197.98 445.222 198.908 446.363C259.859 522.077 370.648 534.042 446.361 473.09C522.074 412.136 534.041 301.347 473.088 225.631Z" class="fa-secondary"/><path d="M198.999 446.492C102.633 459.187 14.222 391.356 1.527 294.988S56.663 110.208 153.029 97.513S337.806 152.649 350.501 249.017C358.12 306.858 336.582 364.715 292.996 403.493C288.097 400.355 283.551 396.697 279.437 392.583C267.637 380.839 259.829 365.681 257.117 349.254C299.773 304.461 298.041 233.569 253.248 190.912S137.565 149.988 94.909 194.781S53.985 310.467 98.778 353.123C117.235 370.7 141.135 381.455 166.53 383.614C172.969 406.561 184.017 427.956 198.999 446.492Z" class="fa-primary"/></svg>

<svg xmlns="http://www.w3.org/2000/svg" viewBox="0 0 512 512"><!-- Font Awesome Pro 5.15.1 by @fontawesome - https://fontawesome.com License - https://fontawesome.com/license (Commercial License) --><defs><style>.fa-secondary{opacity:.4}</style></defs><path d="M130.92 101.84L96 32l32-32h96l32 32-34.92 69.84a176.91 176.91 0 0 0-90.16 0zM350 160.56a207.16 207.16 0 0 1 29.06 72 111.89 111.89 0 1 1-96.46 4.95q-1.5-4.65-3.4-9.14l-.08-.2c-.39-.9-.78-1.8-1.19-2.69a3.54 3.54 0 0 0-.16-.34c-.41-.9-.84-1.79-1.27-2.68l-.09-.18q-1.44-2.91-3.06-5.73v-.07c-.5-.87-1-1.72-1.52-2.57-.11-.18-.22-.36-.34-.54-.43-.71-.87-1.41-1.33-2.11-.13-.21-.27-.42-.41-.63-.46-.7-.92-1.39-1.4-2.07L268 208q-1.8-2.58-3.74-5l-.48-.59c-.48-.61-1-1.21-1.47-1.81l-.67-.8c-.45-.53-.91-1.06-1.37-1.58l-.72-.83c-.49-.53-1-1.06-1.47-1.59l-.66-.72c-.71-.75-1.44-1.5-2.17-2.24a114.18 114.18 0 0 0-9.1-8.13 176.23 176.23 0 0 0-79.63 198.89A175.18 175.18 0 0 0 184 424.69q1.11 1.91 2.26 3.77c.76 1.24 1.54 2.46 2.34 3.68a.21.21 0 0 0 0 .06q1.18 1.82 2.42 3.6l.05.07q1.23 1.79 2.51 3.54c.85 1.18 1.73 2.35 2.61 3.5q1.33 1.75 2.72 3.46A176 176 0 1 0 350 160.56z" class="fa-secondary"/><path d="M199 446.5a176 176 0 1 1 94-43 80.87 80.87 0 0 1-13.56-10.91 79.37 79.37 0 0 1-22.32-43.33 112 112 0 1 0-90.59 34.36A175.41 175.41 0 0 0 199 446.5z" class="fa-primary"/></svg>
